img/icons/profile-verification.svg

<svg width="24" height="24" viewBox="0 0 24 24" fill="none" xmlns="http://www.w3.org/2000/svg">
    <path
        d="M8.4 2H4.13333C2.95513 2 2 2.95513 2 4.13333V8.4M8.4 21.2H4.13333C2.95513 21.2 2 20.2449 2 19.0667V14.8M14.8 2H19.0667C20.2449 2 21.2 2.95513 21.2 4.13333V8.4M21.2 14.8V19.0667C21.2 20.2449 20.2449 21.2 19.0667 21.2H14.8M7.4 8.76523V7.59523M15.8 8.76523V7.59523M8.25266 15.2002C9.62082 16.2603 12.6889 16.2603 14.6007 15.2002M11 12.2752L11.2485 12.0329C11.4736 11.8135 11.6 11.5159 11.6 11.2056V8.18023"
        stroke="#F2F4F6" stroke-width="2" stroke-linecap="round" />
</svg>

<svg width="24" height="24" viewBox="0 0 24 24" fill="none" xmlns="http://www.w3.org/2000/svg"><path d="M8.4 2H4.133A2.133 2.133 0 002 4.133V8.4m6.4 12.8H4.133A2.133 2.133 0 012 19.067V14.8M14.8 2h4.267c1.178 0 2.133.955 2.133 2.133V8.4m0 6.4v4.267a2.133 2.133 0 01-2.133 2.133H14.8M7.4 8.765v-1.17m8.4 1.17v-1.17M8.253 15.2c1.368 1.06 4.436 1.06 6.348 0M11 12.275l.248-.242c.226-.22.352-.517.352-.827V8.18" stroke="#F2F4F6" stroke-width="2" stroke-linecap="round"/></svg>
